src/static/src/img/icons/attribution.svg

<svg height="41" viewBox="0 0 41 41" width="41" xmlns="http://www.w3.org/2000/svg"><g fill="none" fill-rule="evenodd"><path d="m-152-4238h1440v6695h-1440z" fill="#fff"/><g fill-rule="nonzero" transform=""><circle cx="20.5" cy="20.5" fill="#3c4043" r="20.5"/><path d="m12 28h6.6666667v-2.3333333h-6.6666667zm0-14v2.3333333h20v-2.3333333zm0 8.1666667h13.3333333v-2.3333334h-13.3333333z" fill="#fff"/></g></g></svg>

<?xml version="1.0" encoding="UTF-8"?>
<svg width="41px" height="41px" viewBox="0 0 41 41" version="1.1" xmlns="http://www.w3.org/2000/svg" xmlns:xlink="http://www.w3.org/1999/xlink">
    <!-- Generator: Sketch 51 (57462) - http://www.bohemiancoding.com/sketch -->
    <title>Group 10</title>
    <desc>Created with Sketch.</desc>
    <defs></defs>
    <g id="Homepage" stroke="none" stroke-width="1" fill="none" fill-rule="evenodd">
        <g id="v7c" transform="translate(-152.000000, -4238.000000)">
            <rect fill="#FFFFFF" x="0" y="0" width="1440" height="6695"></rect>
            <g id="Group-9-Copy" transform="translate(112.000000, 3958.000000)" fill-rule="nonzero">
                <g id="Group-7-Copy" transform="translate(0.000000, 240.000000)">
                    <g id="Group-4">
                        <g id="Group-9" transform="translate(40.000000, 40.000000)">
                            <g id="Group-10">
                                <circle id="Oval-3-Copy-9" fill="#3C4043" cx="20.5" cy="20.5" r="20.5"></circle>
                                <path d="M12,28 L18.6666667,28 L18.6666667,25.6666667 L12,25.6666667 L12,28 Z M12,14 L12,16.3333333 L32,16.3333333 L32,14 L12,14 Z M12,22.1666667 L25.3333333,22.1666667 L25.3333333,19.8333333 L12,19.8333333 L12,22.1666667 Z" id="Shape" fill="#FFFFFF"></path>
                            </g>
                        </g>
                    </g>
                </g>
            </g>
        </g>
    </g>
</svg>
